src/images/monogram-black.svg

<svg width="32" height="16" viewBox="0 0 32 16" xmlns="http://www.w3.org/2000/svg"><g fill="#333" fill-rule="nonzero"><path d="M8 0l8 16H0zM16 0h16v16H16V0zm0 0v5h5V0h-5zm11 0v5h5V0h-5zm0 11v5h5v-5h-5zm-11 0v5h5v-5h-5z"/></g></svg>

<?xml version="1.0" encoding="UTF-8"?>
<svg width="32px" height="16px" viewBox="0 0 32 16" version="1.1" xmlns="http://www.w3.org/2000/svg" xmlns:xlink="http://www.w3.org/1999/xlink">
    <!-- Generator: Sketch 58 (84663) - https://sketch.com -->
    <title>monogram-black</title>
    <desc>Created with Sketch.</desc>
    <g id="Page-1" stroke="none" stroke-width="1" fill="none" fill-rule="evenodd">
        <g id="monogram-black" fill="#333333" fill-rule="nonzero">
            <g id="Group-3">
                <polygon id="Triangle" points="8 0 16 16 0 16"></polygon>
                <path d="M16,0 L32,0 L32,16 L16,16 L16,0 Z M16,0 L16,5 L21,5 L21,0 L16,0 Z M27,0 L27,5 L32,5 L32,0 L27,0 Z M27,11 L27,16 L32,16 L32,11 L27,11 Z M16,11 L16,16 L21,16 L21,11 L16,11 Z" id="Rectangle"></path>
            </g>
        </g>
    </g>
</svg>
